X:383
T:Upstairs in a Tent
T:Miko Russell's
R:reel
D:Mary Bergin: Feadoga Stain
Z:id:hn-reel-383
M:C|
K:G
~B3G ~A3G|FDAD BDAF|DGGF G2ge|fddc ABcA|
(3Bcd BG (3ABc AG|FDAD BDAF|DGGF G2ge|1 fdcA BGGA:|2 fdcA BG~G2||
dggf g2ag|fdde fdcA|dggf g2ag|fdcA BG~G2|
dggf g2ag|fdd^c defg|~a3g a2ga|fddc ABcA|
dggf g2ag|fdde fdcA|dggf g2gb|a2ga bgga|
bggf gbag|fdde ~f3g|~a3g a2ga|fddc ABcA||

